X: 41405
T: Twilight
R: reel
M: 4/4
K: Dmajor
K:B
|:"B" B,2 z G (GF)(ED)|"F#" CD(EF)"G#m"{/A,} B,2{/C} B,A,|"E" (G,A,)B,C"G" (=DE)(FG)|"D" =A2- AB"F#sus4" F2 z d|
"F#" c{/d}cBA"G#m" G2 z f|"B" d{/e}dcB"F#" c2 z c|"G" (=dc)(B=A)"Em" (=GF)(E=D)|"F#sus4" CB, C2- C2 C{/=D}C:|
|:[K:D]"Gmaj7"{/^A,} B,4{/E} F4|"Dmaj7" f{/g}fed"A/C#"{/B} c2 z c|"Bm" d{/e}dcB"Bm/A"{/G} A2 (GF)|"Gmaj7"{/C} D8|
"Gmaj7" D4"A" A4|"D" a2 gf"A/C#"{/d} e2 z e|"Bm" f{/g}fed"F#m"{/B} c2 z c|
"Gmaj7" (dc)BA GF(ED)|1 "F#sus4" CB, C2- C2 C{/D}C:|2 "F#sus4" CB, C2- C4||
"Interlude:""F#/B" .B,2 [C^A]2- [CA]2"B" [^DB]2-|"E" [DB]2 [E^G]2-"F#" [EG][^DF][B,E][B,D]|
"G" [B,E][CF] [DG]2- [DG][FA][GB][Ac]|[M:2/4]"Bm" [Fd]{/e}[Fd] [Fc][EB]|[M:4/4]"F#" [Fc]8-|[Fc]8||

